X: 31935
T: Pearl O'Shaughnessy's
R: barndance
M: 4/4
K: Gmajor
|:B>c|d2 d2 d>Be>d|B2 B2 B>AG>B|d2 c2 c>AF>A|e2 d2 d>BG>B|
d2 d2 d>Be>d|B2 B2 B>AG>B|d2 c2 c>AF>A|G>DB,>D G2:|
|:d>c|B2 G2 G>Bd>B|c2 A2 A2 c>B|A2 F2 F2 D>F|G>FG>B e2 d>c|
B2 G2 G>Bd>B|c2 A2 A2 c>B|A>GF>E D>EF>D|G2 B2 G2:|

